assets/sonr-icons/tv.svg

<svg xmlns="http://www.w3.org/2000/svg" width="24" height="24" fill="none"><path fill="currentColor" d="M7 20a1 1 0 0 1 1-1h8a1 1 0 0 1 0 2H8a1 1 0 0 1-1-1m.162-17h9.677c.527 0 .982 0 1.357.031.395.032.788.103 1.167.296a3 3 0 0 1 1.311 1.311c.193.379.264.772.296 1.167.031.374.031.83.031 1.357v5.678c0 .527 0 .982-.031 1.357-.032.395-.104.788-.296 1.167a3 3 0 0 1-1.311 1.311c-.379.193-.772.264-1.167.296-.374.031-.83.031-1.357.031H7.162c-.527 0-.982 0-1.357-.031-.395-.032-.788-.104-1.167-.296a3 3 0 0 1-1.311-1.311c-.193-.379-.264-.772-.296-1.167C3 13.823 3 13.367 3 12.84V7.163c0-.527 0-.982.031-1.357.032-.395.103-.788.296-1.167a3 3 0 0 1 1.311-1.311c.379-.193.772-.264 1.167-.296C6.179 3.001 6.634 3 7.162 3M5.968 5.024c-.271.022-.373.06-.421.085a1 1 0 0 0-.437.437c-.026.05-.063.15-.085.421a17 17 0 0 0-.024 1.232v5.6c0 .577.001.949.024 1.232.022.271.06.372.085.421.096.188.249.341.437.437.05.026.15.063.421.085.283.023.655.024 1.232.024h9.6c.577 0 .949-.001 1.232-.024.271-.023.372-.06.422-.085.188-.096.341-.249.437-.437.026-.049.063-.15.085-.421.023-.284.024-.655.024-1.232v-5.6c0-.577-.001-.949-.024-1.232-.023-.272-.06-.373-.085-.422a1 1 0 0 0-.437-.437c-.049-.026-.15-.063-.422-.085-.283-.023-.655-.024-1.232-.024H7.2c-.577 0-.949.001-1.232.024z"/></svg>

<svg xmlns="http://www.w3.org/2000/svg" width="24" height="24" fill="none" viewBox="0 0 24 24"><path fill="#000" d="M7 20C7 19.448 7.448 19 8 19H16C16.552 19 17 19.448 17 20C17 20.552 16.552 21 16 21H8C7.448 21 7 20.552 7 20ZM7.162 3H16.839C17.366 3 17.821 3 18.196 3.031C18.591 3.063 18.984 3.134 19.363 3.327C19.928 3.614 20.387 4.073 20.674 4.638C20.867 5.017 20.938 5.41 20.97 5.805C21.001 6.179 21.001 6.635 21.001 7.162V12.84C21.001 13.367 21.001 13.822 20.97 14.197C20.938 14.592 20.866 14.985 20.674 15.364C20.387 15.929 19.928 16.388 19.363 16.675C18.984 16.868 18.591 16.939 18.196 16.971C17.822 17.002 17.366 17.002 16.839 17.002H7.162C6.635 17.002 6.18 17.002 5.805 16.971C5.41 16.939 5.017 16.867 4.638 16.675C4.073 16.388 3.614 15.929 3.327 15.364C3.134 14.985 3.063 14.592 3.031 14.197C3 13.823 3 13.367 3 12.84V7.163C3 6.636 3 6.181 3.031 5.806C3.063 5.411 3.134 5.018 3.327 4.639C3.614 4.074 4.073 3.615 4.638 3.328C5.017 3.135 5.41 3.064 5.805 3.032C6.179 3.001 6.634 3 7.162 3ZM5.968 5.024C5.697 5.046 5.595 5.084 5.547 5.109C5.359 5.205 5.206 5.358 5.11 5.546C5.084 5.596 5.047 5.696 5.025 5.967C5.002 6.251 5.001 6.622 5.001 7.199V12.799C5.001 13.376 5.002 13.748 5.025 14.031C5.047 14.302 5.085 14.403 5.11 14.452C5.206 14.64 5.359 14.793 5.547 14.889C5.597 14.915 5.697 14.952 5.968 14.974C6.251 14.997 6.623 14.998 7.2 14.998H16.8C17.377 14.998 17.749 14.997 18.032 14.974C18.303 14.951 18.404 14.914 18.454 14.889C18.642 14.793 18.795 14.64 18.891 14.452C18.917 14.403 18.954 14.302 18.976 14.031C18.999 13.747 19 13.376 19 12.799V7.199C19 6.622 18.999 6.25 18.976 5.967C18.953 5.695 18.916 5.594 18.891 5.545C18.795 5.357 18.642 5.204 18.454 5.108C18.405 5.082 18.304 5.045 18.032 5.023C17.749 5 17.377 4.999 16.8 4.999H7.2C6.623 4.999 6.251 5 5.968 5.023V5.024Z"/></svg>
